X:69
T:score159
L:1/8
Q:1/4=96
M:2/4
I:linebreak $
K:F
!p! (a | .f).c .d.e | .f.g .a.f | .c'.c' .c'.c' | (a/b/a/g/ .f)(A |"_cresc." .B).c .d.e |$ %6
 .f.g .a.f | .g.b (e/f/g/e/ | f2) z2 |] %9
